;FLAVOR:UltiGCode
;TIME:1106
;MATERIAL:1167
;MATERIAL2:0
;NOZZLE_DIAMETER:0.4
;Generated with Cura_SteamEngine 3.5.1
M82 ;absolute extrusion mode

G92 E0
G10
;LAYER_COUNT:55
;LAYER:0
M107
G0 F3600 X85.688 Y97.253 Z0.3
;TYPE:SKIRT
G11
G1 F1800 X86.324 Y96.786 E0.09468
G1 X87.004 Y96.385 E0.18942
G1 X87.722 Y96.055 E0.28424
G1 X88.469 Y95.8 E0.37896
G1 X89.238 Y95.621 E0.47371
G1 X90.022 Y95.521 E0.56855
G1 X90.616 Y95.498 E0.63988
G1 X102.7 Y95.497 E2.08996
G1 X102.7 Y94.758 E2.17864
G1 X102.74 Y93.969 E2.27344
G1 X102.859 Y93.189 E2.36813
G1 X103.057 Y92.424 E2.46295
G1 X103.331 Y91.684 E2.55764
G1 X103.679 Y90.975 E2.65242
G1 X104.097 Y90.304 E2.74729
G1 X104.58 Y89.68 E2.84198
G1 X104.985 Y89.243 E2.91347
G1 X105.102 Y89.126 E2.93333
G1 X105.688 Y88.596 E3.02814
G1 X106.324 Y88.129 E3.12283
G1 X107.004 Y87.728 E3.21756
G1 X107.722 Y87.398 E3.31239
G1 X108.469 Y87.143 E3.40711
G1 X109.238 Y86.964 E3.50185
G1 X110.022 Y86.864 E3.59669
G1 X110.617 Y86.841 E3.66815
G1 X132.383 Y86.841 E6.28007
G1 X133.172 Y86.881 E6.37487
G1 X133.952 Y87 E6.46955
G1 X134.717 Y87.198 E6.56438
G1 X135.457 Y87.472 E6.65907
G1 X136.166 Y87.82 E6.75385
G1 X136.837 Y88.238 E6.84871
G1 X137.461 Y88.721 E6.9434
G1 X137.898 Y89.126 E7.0149
G1 X138.015 Y89.243 E7.03475
G1 X138.545 Y89.829 E7.12957
G1 X139.012 Y90.465 E7.22425
G1 X139.413 Y91.145 E7.31899
G1 X139.743 Y91.863 E7.41381
G1 X139.998 Y92.61 E7.50853
G1 X140.177 Y93.379 E7.60328
G1 X140.277 Y94.163 E7.69812
G1 X140.3 Y94.758 E7.76957
G1 X140.3 Y116.524 E10.38149
G1 X140.26 Y117.313 E10.47629
G1 X140.141 Y118.093 E10.57098
G1 X139.943 Y118.858 E10.6658
G1 X139.669 Y119.598 E10.76049
G1 X139.321 Y120.307 E10.85527
G1 X138.903 Y120.978 E10.95014
G1 X138.42 Y121.602 E11.04483
G1 X138.015 Y122.039 E11.11632
G1 X137.898 Y122.156 E11.13618
G1 X137.312 Y122.686 E11.23099
G1 X136.676 Y123.153 E11.32568
G1 X135.996 Y123.554 E11.42041
G1 X135.278 Y123.884 E11.51524
G1 X134.531 Y124.139 E11.60995
G1 X133.762 Y124.318 E11.7047
G1 X132.978 Y124.418 E11.79954
G1 X132.383 Y124.441 E11.871
G1 X110.617 Y124.441 E14.48292
G1 X109.828 Y124.401 E14.57772
G1 X109.048 Y124.282 E14.6724
G1 X108.283 Y124.084 E14.76723
G1 X107.543 Y123.81 E14.86192
G1 X106.834 Y123.462 E14.95669
G1 X106.163 Y123.044 E15.05156
G1 X105.539 Y122.561 E15.14625
G1 X105.102 Y122.156 E15.21775
G1 X104.985 Y122.039 E15.2376
G1 X104.455 Y121.453 E15.33242
G1 X103.988 Y120.817 E15.4271
G1 X103.587 Y120.137 E15.52184
G1 X103.257 Y119.419 E15.61666
G1 X103.002 Y118.672 E15.71138
G1 X102.823 Y117.903 E15.80613
G1 X102.723 Y117.119 E15.90097
G1 X102.7 Y116.524 E15.97242
G1 X102.7 Y115.786 E16.06098
G1 X90.616 Y115.785 E17.51106
G1 X89.828 Y115.745 E17.60574
G1 X89.047 Y115.625 E17.70056
G1 X88.282 Y115.427 E17.79539
G1 X87.542 Y115.153 E17.89008
G1 X86.833 Y114.806 E17.9848
G1 X86.163 Y114.388 E18.07957
G1 X85.538 Y113.905 E18.17435
G1 X85.102 Y113.5 E18.24576
G1 X84.985 Y113.383 E18.26562
G1 X84.455 Y112.797 E18.36043
G1 X83.988 Y112.161 E18.45512
G1 X83.587 Y111.481 E18.54985
G1 X83.257 Y110.763 E18.64467
G1 X83.002 Y110.016 E18.73939
G1 X82.823 Y109.247 E18.83414
G1 X82.723 Y108.463 E18.92898
G1 X82.7 Y107.868 E19.00044
G1 X82.7 Y103.415 E19.5348
G1 X82.74 Y102.626 E19.6296
G1 X82.859 Y101.846 E19.72428
G1 X83.057 Y101.081 E19.81911
G1 X83.331 Y100.341 E19.9138
G1 X83.679 Y99.632 E20.00857
G1 X84.097 Y98.961 E20.10344
G1 X84.58 Y98.337 E20.19813
G1 X84.985 Y97.9 E20.26963
G1 X85.102 Y97.783 E20.28948
G1 X85.688 Y97.253 E20.3843
G0 F3600 X85.956 Y97.551
G1 F1800 X86.578 Y97.098 E20.47664
G1 X87.243 Y96.712 E20.5689
G1 X87.945 Y96.397 E20.66124
G1 X88.676 Y96.157 E20.75356
G1 X89.427 Y95.994 E20.84578
G1 X90.192 Y95.91 E20.93813
G1 X90.616 Y95.898 E20.98903
G1 X103.1 Y95.897 E22.48711
G1 X103.1 Y94.758 E22.62379
G1 X103.14 Y93.99 E22.71608
G1 X103.259 Y93.23 E22.80839
G1 X103.457 Y92.487 E22.90066
G1 X103.731 Y91.768 E22.99299
G1 X104.078 Y91.082 E23.08525
G1 X104.494 Y90.435 E23.17755
G1 X104.975 Y89.835 E23.26983
G1 X105.267 Y89.525 E23.32093
G1 X105.384 Y89.408 E23.34079
G1 X105.956 Y88.894 E23.43307
G1 X106.578 Y88.441 E23.52541
G1 X107.243 Y88.055 E23.61768
G1 X107.945 Y87.74 E23.71001
G1 X108.676 Y87.5 E23.80234
G1 X109.427 Y87.337 E23.89456
G1 X110.192 Y87.253 E23.98691
G1 X110.617 Y87.241 E24.03793
G1 X132.383 Y87.241 E26.64985
G1 X133.151 Y87.281 E26.74213
G1 X133.911 Y87.4 E26.83444
G1 X134.654 Y87.598 E26.92671
G1 X135.373 Y87.872 E27.01905
G1 X136.059 Y88.219 E27.1113
G1 X136.706 Y88.635 E27.2036
G1 X137.306 Y89.116 E27.29588
G1 X137.616 Y89.408 E27.34699
G1 X137.733 Y89.525 E27.36684
G1 X138.247 Y90.097 E27.45912
G1 X138.7 Y90.719 E27.55146
G1 X139.086 Y91.384 E27.64373
G1 X139.401 Y92.086 E27.73606
G1 X139.641 Y92.817 E27.82839
G1 X139.804 Y93.568 E27.92061
G1 X139.888 Y94.333 E28.01296
G1 X139.9 Y94.758 E28.06398
G1 X139.9 Y116.524 E30.6759
G1 X139.86 Y117.292 E30.76819
G1 X139.741 Y118.052 E30.8605
G1 X139.543 Y118.795 E30.95277
G1 X139.269 Y119.514 E31.0451
G1 X138.922 Y120.2 E31.13735
G1 X138.506 Y120.847 E31.22966
G1 X138.025 Y121.447 E31.32194
G1 X137.733 Y121.757 E31.37304
G1 X137.616 Y121.874 E31.3929
G1 X137.044 Y122.388 E31.48518
G1 X136.422 Y122.841 E31.57751
G1 X135.757 Y123.227 E31.66978
G1 X135.055 Y123.542 E31.76212
G1 X134.324 Y123.782 E31.85444
G1 X133.573 Y123.945 E31.94666
G1 X132.808 Y124.029 E32.03901
G1 X132.383 Y124.041 E32.09003
G1 X110.617 Y124.041 E34.70195
G1 X109.849 Y124.001 E34.79424
G1 X109.089 Y123.882 E34.88655
G1 X108.346 Y123.684 E34.97882
G1 X107.627 Y123.41 E35.07115
G1 X106.941 Y123.063 E35.16341
G1 X106.294 Y122.647 E35.25571
G1 X105.694 Y122.166 E35.34799
G1 X105.384 Y121.874 E35.39909
G1 X105.267 Y121.757 E35.41895
G1 X104.753 Y121.185 E35.51123
G1 X104.3 Y120.563 E35.60357
G1 X103.914 Y119.898 E35.69584
G1 X103.599 Y119.196 E35.78817
G1 X103.359 Y118.465 E35.8805
G1 X103.196 Y117.714 E35.97271
G1 X103.112 Y116.949 E36.06507
G1 X103.1 Y116.524 E36.11609
G1 X103.1 Y115.386 E36.25265
G1 X90.616 Y115.385 E37.75073
G1 X89.848 Y115.345 E37.84301
G1 X89.088 Y115.225 E37.93534
G1 X88.345 Y115.028 E38.02758
G1 X87.626 Y114.754 E38.11991
G1 X86.94 Y114.407 E38.21217
G1 X86.293 Y113.99 E38.30454
G1 X85.693 Y113.509 E38.39682
G1 X85.384 Y113.218 E38.44775
G1 X85.267 Y113.101 E38.46761
G1 X84.753 Y112.529 E38.55989
G1 X84.3 Y111.907 E38.65222
G1 X83.914 Y111.242 E38.74449
G1 X83.599 Y110.54 E38.83683
G1 X83.359 Y109.809 E38.92915
G1 X83.196 Y109.058 E39.02137
G1 X83.112 Y108.293 E39.11372
G1 X83.1 Y107.868 E39.16474
G1 X83.1 Y103.415 E39.6991
G1 X83.14 Y102.647 E39.79139
G1 X83.259 Y101.887 E39.8837
G1 X83.457 Y101.144 E39.97597
G1 X83.731 Y100.425 E40.0683
G1 X84.078 Y99.739 E40.16056
G1 X84.494 Y99.092 E40.25286
G1 X84.975 Y98.492 E40.34514
G1 X85.267 Y98.182 E40.39624
G1 X85.384 Y98.065 E40.4161
G1 X85.956 Y97.551 E40.50838
G0 F3600 X86.224 Y97.848
G1 F1800 X86.83 Y97.411 E40.59804
G1 X87.48 Y97.04 E40.68785
G1 X88.166 Y96.741 E40.77765
G1 X88.88 Y96.517 E40.86744
G1 X89.613 Y96.37 E40.95716
G1 X90.616 Y96.298 E41.07783
G1 X103.5 Y96.297 E42.62391
G1 X103.5 Y94.758 E42.80859
G1 X103.54 Y94.011 E42.89835
G1 X103.659 Y93.273 E42.98806
G1 X103.857 Y92.551 E43.0779
G1 X104.13 Y91.855 E43.16761
G1 X104.477 Y91.192 E43.25741
G1 X104.892 Y90.569 E43.34724
G1 X105.55 Y89.808 E43.46796
G1 X105.667 Y89.691 E43.48782
G1 X106.224 Y89.191 E43.57764
G1 X106.83 Y88.754 E43.66729
G1 X107.48 Y88.383 E43.7571
G1 X108.166 Y88.084 E43.8469
G1 X108.88 Y87.86 E43.9367
G1 X109.613 Y87.713 E44.02641
G1 X110.617 Y87.641 E44.1472
G1 X132.383 Y87.641 E46.75912
G1 X133.13 Y87.681 E46.84889
G1 X133.868 Y87.8 E46.93859
G1 X134.59 Y87.998 E47.02843
G1 X135.286 Y88.271 E47.11815
G1 X135.949 Y88.618 E47.20794
G1 X136.572 Y89.033 E47.29777
G1 X137.333 Y89.691 E47.4185
G1 X137.45 Y89.808 E47.43835
G1 X137.95 Y90.365 E47.52817
G1 X138.387 Y90.971 E47.61783
G1 X138.758 Y91.621 E47.70764
G1 X139.057 Y92.307 E47.79744
G1 X139.281 Y93.021 E47.88724
G1 X139.428 Y93.754 E47.97695
G1 X139.5 Y94.758 E48.09774
G1 X139.5 Y116.524 E50.70966
G1 X139.46 Y117.271 E50.79942
G1 X139.341 Y118.009 E50.88913
G1 X139.143 Y118.731 E50.97897
G1 X138.87 Y119.427 E51.06868
G1 X138.523 Y120.09 E51.15848
G1 X138.108 Y120.713 E51.24831
G1 X137.45 Y121.474 E51.36903
G1 X137.333 Y121.591 E51.38889
G1 X136.776 Y122.091 E51.47871
G1 X136.17 Y122.528 E51.56836
G1 X135.52 Y122.899 E51.65817
G1 X134.834 Y123.198 E51.74797
G1 X134.12 Y123.422 E51.83777
G1 X133.387 Y123.569 E51.92748
G1 X132.383 Y123.641 E52.04827
G1 X110.617 Y123.641 E54.66019
G1 X109.87 Y123.601 E54.74996
G1 X109.132 Y123.482 E54.83966
G1 X108.41 Y123.284 E54.9295
G1 X107.714 Y123.011 E55.01922
G1 X107.051 Y122.664 E55.10902
G1 X106.428 Y122.249 E55.19884
G1 X105.667 Y121.591 E55.31957
G1 X105.55 Y121.474 E55.33942
G1 X105.05 Y120.917 E55.42924
G1 X104.613 Y120.311 E55.5189
G1 X104.242 Y119.661 E55.60871
G1 X103.943 Y118.975 E55.69851
G1 X103.719 Y118.261 E55.78831
G1 X103.572 Y117.528 E55.87802
G1 X103.5 Y116.524 E55.99881
G1 X103.5 Y114.986 E56.18337
G1 X90.616 Y114.985 E57.72945
G1 X89.869 Y114.945 E57.81922
G1 X89.131 Y114.825 E57.90894
G1 X88.409 Y114.628 E57.99875
G1 X87.713 Y114.354 E58.0885
G1 X87.05 Y114.008 E58.17825
G1 X86.428 Y113.593 E58.26798
G1 X85.667 Y112.935 E58.3887
G1 X85.55 Y112.818 E58.40855
G1 X85.05 Y112.261 E58.49837
G1 X84.613 Y111.655 E58.58803
G1 X84.242 Y111.005 E58.67784
G1 X83.943 Y110.319 E58.76764
G1 X83.719 Y109.605 E58.85744
G1 X83.572 Y108.872 E58.94715
G1 X83.5 Y107.868 E59.06794
G1 X83.5 Y103.415 E59.6023
G1 X83.54 Y102.668 E59.69207
G1 X83.659 Y101.93 E59.78177
G1 X83.857 Y101.208 E59.87161
G1 X84.13 Y100.512 E59.96132
G1 X84.477 Y99.849 E60.05112
G1 X84.892 Y99.226 E60.14095
G1 X85.55 Y98.465 E60.26167
G1 X85.667 Y98.348 E60.28153
G1 X86.224 Y97.848 E60.37135
G0 F3600 X86.491 Y98.147
G1 F1800 X87.082 Y97.724 E60.45856
G1 X87.716 Y97.37 E60.5457
G1 X88.385 Y97.087 E60.63287
G1 X89.081 Y96.879 E60.72004
G1 X89.796 Y96.749 E60.80724
G1 X90.616 Y96.698 E60.90583
G1 X103.9 Y96.697 E62.49991
G1 X103.9 Y94.758 E62.73259
G1 X103.94 Y94.033 E62.81973
G1 X104.059 Y93.316 E62.90694
G1 X104.257 Y92.617 E62.99412
G1 X104.53 Y91.944 E63.08127
G1 X104.875 Y91.305 E63.16842
G1 X105.289 Y90.708 E63.2556
G1 X105.833 Y90.091 E63.35431
G1 X105.95 Y89.974 E63.37416
G1 X106.491 Y89.49 E63.46127
G1 X107.082 Y89.067 E63.54848
G1 X107.716 Y88.713 E63.63562
G1 X108.385 Y88.43 E63.72279
G1 X109.081 Y88.222 E63.80996
G1 X109.796 Y88.092 E63.89716
G1 X110.617 Y88.041 E63.99587
G1 X132.383 Y88.041 E66.60779
G1 X133.108 Y88.081 E66.69493
G1 X133.825 Y88.2 E66.78214
G1 X134.524 Y88.398 E66.86932
G1 X135.197 Y88.671 E66.95647
G1 X135.836 Y89.016 E67.04362
G1 X136.433 Y89.43 E67.1308
G1 X137.05 Y89.974 E67.22951
G1 X137.167 Y90.091 E67.24936
G1 X137.651 Y90.632 E67.33647
G1 X138.074 Y91.223 E67.42368
G1 X138.428 Y91.857 E67.51082
G1 X138.711 Y92.526 E67.59799
G1 X138.919 Y93.222 E67.68516
G1 X139.049 Y93.937 E67.77236
G1 X139.1 Y94.758 E67.87107
G1 X139.1 Y116.524 E70.48299
G1 X139.06 Y117.249 E70.57013
G1 X138.941 Y117.966 E70.65734
G1 X138.743 Y118.665 E70.74452
G1 X138.47 Y119.338 E70.83167
G1 X138.125 Y119.977 E70.91882
G1 X137.711 Y120.574 E71.006
G1 X137.167 Y121.191 E71.10471
G1 X137.05 Y121.308 E71.12456
G1 X136.509 Y121.792 E71.21167
G1 X135.918 Y122.215 E71.29888
G1 X135.284 Y122.569 E71.38602
G1 X134.615 Y122.852 E71.47319
G1 X133.919 Y123.06 E71.56036
G1 X133.204 Y123.19 E71.64756
G1 X132.383 Y123.241 E71.74627
G1 X110.617 Y123.241 E74.35819
G1 X109.892 Y123.201 E74.44533
G1 X109.175 Y123.082 E74.53254
G1 X108.476 Y122.884 E74.61972
G1 X107.803 Y122.611 E74.70687
G1 X107.164 Y122.266 E74.79402
G1 X106.567 Y121.852 E74.8812
G1 X105.95 Y121.308 E74.97991
G1 X105.833 Y121.191 E74.99976
G1 X105.349 Y120.65 E75.08687
G1 X104.926 Y120.059 E75.17408
G1 X104.572 Y119.425 E75.26122
G1 X104.289 Y118.756 E75.34839
G1 X104.081 Y118.06 E75.43556
G1 X103.951 Y117.345 E75.52276
G1 X103.9 Y116.524 E75.62147
G1 X103.9 Y114.586 E75.85403
G1 X90.616 Y114.585 E77.44811
G1 X89.891 Y114.545 E77.53525
G1 X89.175 Y114.425 E77.62236
G1 X88.476 Y114.228 E77.70951
G1 X87.803 Y113.955 E77.79666
G1 X87.164 Y113.609 E77.88386
G1 X86.566 Y113.196 E77.97107
G1 X85.95 Y112.652 E78.06969
G1 X85.833 Y112.535 E78.08955
G1 X85.349 Y111.994 E78.17666
G1 X84.926 Y111.403 E78.26387
G1 X84.572 Y110.769 E78.35101
G1 X84.289 Y110.1 E78.43817
G1 X84.081 Y109.404 E78.52534
G1 X83.951 Y108.689 E78.61255
G1 X83.9 Y107.868 E78.71126
G1 X83.9 Y103.415 E79.24562
G1 X83.94 Y102.69 E79.33275
G1 X84.059 Y101.973 E79.41997
G1 X84.257 Y101.274 E79.50715
G1 X84.53 Y100.601 E79.5943
G1 X84.875 Y99.962 E79.68144
G1 X85.289 Y99.365 E79.76862
G1 X85.833 Y98.748 E79.86733
G1 X85.95 Y98.631 E79.88719
G1 X86.491 Y98.147 E79.9743
G0 F3600 X86.758 Y98.445
G1 F1800 X87.333 Y98.039 E80.05876
G1 X87.951 Y97.701 E80.14329
G1 X88.602 Y97.434 E80.22773
G1 X89.28 Y97.244 E80.31222
G1 X89.975 Y97.131 E80.39671
G1 X90.616 Y97.098 E80.47374
G1 X104.3 Y97.097 E82.11582
G1 X104.3 Y94.758 E82.3965
G1 X104.34 Y94.055 E82.48099
G1 X104.459 Y93.361 E82.56549
G1 X104.657 Y92.686 E82.6499
G1 X104.929 Y92.037 E82.73434
G1 X105.274 Y91.423 E82.81886
G1 X105.685 Y90.852 E82.90328
G1 X106.116 Y90.374 E82.98052
G1 X106.233 Y90.257 E83.00037
G1 X106.758 Y89.788 E83.08485
G1 X107.333 Y89.382 E83.16932
G1 X107.951 Y89.044 E83.25384
G1 X108.602 Y88.777 E83.33828
G1 X109.28 Y88.587 E83.42277
G1 X109.975 Y88.474 E83.50727
G1 X110.617 Y88.441 E83.58441
G1 X132.383 Y88.441 E86.19633
G1 X133.086 Y88.481 E86.28083
G1 X133.78 Y88.6 E86.36532
G1 X134.455 Y88.798 E86.44974
G1 X135.104 Y89.07 E86.53418
G1 X135.718 Y89.415 E86.61869
G1 X136.289 Y89.826 E86.70312
G1 X136.767 Y90.257 E86.78035
G1 X136.884 Y90.374 E86.80021
G1 X137.353 Y90.899 E86.88468
G1 X137.759 Y91.474 E86.96915
G1 X138.097 Y92.092 E87.05368
G1 X138.364 Y92.743 E87.13811
G1 X138.554 Y93.421 E87.22261
G1 X138.667 Y94.116 E87.3071
G1 X138.7 Y94.758 E87.38424
G1 X138.7 Y116.524 E89.99616
G1 X138.66 Y117.227 E90.08066
G1 X138.541 Y117.921 E90.16516
G1 X138.343 Y118.596 E90.24957
G1 X138.071 Y119.245 E90.33401
G1 X137.726 Y119.859 E90.41853
G1 X137.315 Y120.43 E90.50295
G1 X136.884 Y120.908 E90.58019
G1 X136.767 Y121.025 E90.60004
G1 X136.242 Y121.494 E90.68452
G1 X135.667 Y121.9 E90.76899
G1 X135.049 Y122.238 E90.85351
G1 X134.398 Y122.505 E90.93795
G1 X133.72 Y122.695 E91.02244
G1 X133.025 Y122.808 E91.10694
G1 X132.383 Y122.841 E91.18408
G1 X110.617 Y122.841 E93.796
G1 X109.914 Y122.801 E93.8805
G1 X109.22 Y122.682 E93.96499
G1 X108.545 Y122.484 E94.0494
G1 X107.896 Y122.212 E94.13385
G1 X107.282 Y121.867 E94.21836
G1 X106.711 Y121.456 E94.30279
G1 X106.233 Y121.025 E94.38002
G1 X106.116 Y120.908 E94.39988
G1 X105.647 Y120.383 E94.48435
G1 X105.241 Y119.808 E94.56882
G1 X104.903 Y119.19 E94.65335
G1 X104.636 Y118.539 E94.73778
G1 X104.446 Y117.861 E94.82228
G1 X104.333 Y117.166 E94.90677
G1 X104.3 Y116.524 E94.98391
G1 X104.3 Y114.186 E95.26447
G1 X90.616 Y114.185 E96.90655
G1 X89.914 Y114.145 E96.99093
G1 X89.22 Y114.026 E97.07543
G1 X88.544 Y113.828 E97.15995
G1 X87.895 Y113.555 E97.24444
G1 X87.281 Y113.211 E97.3289
G1 X86.71 Y112.799 E97.41339
G1 X86.233 Y112.369 E97.49046
G1 X86.116 Y112.252 E97.51031
G1 X85.647 Y111.727 E97.59479
G1 X85.241 Y111.152 E97.67926
G1 X84.903 Y110.534 E97.76378
G1 X84.636 Y109.883 E97.84822
G1 X84.446 Y109.205 E97.93271
G1 X84.333 Y108.51 E98.01721
G1 X84.3 Y107.868 E98.09435
G1 X84.3 Y103.415 E98.62871
G1 X84.34 Y102.712 E98.71321
G1 X84.459 Y102.018 E98.7977
G1 X84.657 Y101.343 E98.88212
G1 X84.929 Y100.694 E98.96656
G1 X85.274 Y100.08 E99.05107
G1 X85.685 Y99.509 E99.1355
G1 X86.116 Y99.031 E99.21273
G1 X86.233 Y98.914 E99.23259
G1 X86.758 Y98.445 E99.31707
G0 F3600 X87.025 Y98.744
G1 F1800 X87.583 Y98.355 E99.39869
G1 X88.183 Y98.033 E99.4804
G1 X88.817 Y97.784 E99.56214
G1 X89.476 Y97.611 E99.6439
G1 X90.15 Y97.517 E99.72556
G1 X90.616 Y97.498 E99.78153
G1 X104.7 Y97.497 E101.47161
G1 X104.7 Y94.758 E101.80029
G1 X104.74 Y94.078 E101.88203
G1 X104.859 Y93.408 E101.96369
G1 X105.056 Y92.756 E102.04542
G1 X105.328 Y92.132 E102.12711
