;FLAVOR:UltiGCode
;TIME:862
;MATERIAL:811
;MATERIAL2:0
;NOZZLE_DIAMETER:0.4
;Generated with Cura_SteamEngine 3.5.1
M82 ;absolute extrusion mode

G92 E0
G10
;LAYER_COUNT:34
;LAYER:0
M107
G0 F4320 X88.33 Y106.4 Z0.27
;TYPE:SKIRT
G11
G1 F1800 X88.771 Y106.104 E0.05019
G1 X89.35 Y105.841 E0.11029
G1 X95.819 Y103.586 E0.75768
G1 X100.833 Y101.483 E1.2715
G1 X105.744 Y99.088 E1.78783
G1 X108.826 Y97.412 E2.11936
G1 X109.31 Y97.195 E2.16949
G1 X109.821 Y97.052 E2.21963
G1 X110.51 Y96.984 E2.28506
G1 X132.491 Y96.985 E4.36226
G1 X133.02 Y97.025 E4.4124
G1 X133.537 Y97.144 E4.46253
G1 X134.031 Y97.339 E4.51272
G1 X134.489 Y97.606 E4.56282
G1 X134.903 Y97.939 E4.61302
G1 X135.261 Y98.33 E4.66312
G1 X135.557 Y98.771 E4.71331
G1 X135.783 Y99.251 E4.76345
G1 X135.935 Y99.759 E4.81356
G1 X136.016 Y100.51 E4.88494
G1 X136.016 Y122.491 E6.96214
G1 X135.976 Y123.02 E7.01228
G1 X135.857 Y123.537 E7.06241
G1 X135.662 Y124.031 E7.1126
G1 X135.395 Y124.489 E7.1627
G1 X135.062 Y124.903 E7.21291
G1 X134.671 Y125.261 E7.26301
G1 X134.23 Y125.557 E7.3132
G1 X133.75 Y125.783 E7.36333
G1 X133.242 Y125.935 E7.41344
G1 X132.491 Y126.016 E7.48482
G1 X110.505 Y126.015 E9.5625
G1 X109.976 Y125.975 E9.61263
G1 X109.459 Y125.856 E9.66277
G1 X108.84 Y125.597 E9.72618
G1 X104.375 Y123.205 E10.20485
G1 X99.43 Y120.89 E10.72083
G1 X94.344 Y118.849 E11.23871
G1 X89.38 Y117.169 E11.73395
G1 X88.892 Y116.962 E11.78404
G1 X88.44 Y116.683 E11.83424
G1 X88.035 Y116.34 E11.88439
G1 X87.686 Y115.94 E11.93456
G1 X87.402 Y115.492 E11.98468
G1 X87.187 Y115.007 E12.03482
G1 X87.048 Y114.495 E12.08495
G1 X86.985 Y113.83 E12.14808
G1 X86.985 Y109.17 E12.58845
G1 X87.025 Y108.641 E12.63858
G1 X87.144 Y108.124 E12.68871
G1 X87.339 Y107.63 E12.7389
G1 X87.606 Y107.172 E12.789
G1 X87.939 Y106.758 E12.83921
G1 X88.33 Y106.4 E12.88931
G0 F4320 X88.67 Y106.583
G1 F1800 X89.102 Y106.324 E12.9369
G1 X89.465 Y106.172 E12.97409
G1 X95.932 Y103.918 E13.62128
G1 X100.973 Y101.803 E14.13789
G1 X105.926 Y99.388 E14.65862
G1 X108.993 Y97.72 E14.98854
G1 X109.453 Y97.515 E15.03613
G1 X109.94 Y97.386 E15.08374
G1 X110.51 Y97.334 E15.13783
G1 X132.491 Y97.335 E17.21503
G1 X132.993 Y97.375 E17.26262
G1 X133.483 Y97.494 E17.31027
G1 X133.947 Y97.688 E17.3578
G1 X134.375 Y97.954 E17.40542
G1 X134.755 Y98.284 E17.45298
G1 X135.079 Y98.67 E17.5006
G1 X135.337 Y99.102 E17.54816
G1 X135.524 Y99.57 E17.59578
G1 X135.634 Y100.061 E17.64333
G1 X135.666 Y100.51 E17.68587
G1 X135.666 Y122.491 E19.76307
G1 X135.626 Y122.993 E19.81066
G1 X135.507 Y123.482 E19.85822
G1 X135.313 Y123.947 E19.90584
G1 X135.047 Y124.375 E19.95346
G1 X134.717 Y124.755 E20.00102
G1 X134.331 Y125.078 E20.04858
G1 X133.899 Y125.337 E20.09618
G1 X133.431 Y125.524 E20.1438
G1 X132.94 Y125.634 E20.19135
G1 X132.491 Y125.666 E20.23389
G1 X110.505 Y125.665 E22.31157
G1 X110.003 Y125.625 E22.35916
G1 X109.513 Y125.506 E22.40681
G1 X109.006 Y125.289 E22.45893
G1 X104.526 Y122.889 E22.93921
G1 X99.583 Y120.574 E23.45501
G1 X94.45 Y118.515 E23.97765
G1 X89.492 Y116.837 E24.47229
G1 X89.03 Y116.639 E24.51979
G1 X88.604 Y116.369 E24.56745
G1 X88.227 Y116.036 E24.61498
G1 X87.906 Y115.647 E24.66264
G1 X87.652 Y115.213 E24.71017
G1 X87.469 Y114.743 E24.75783
G1 X87.363 Y114.251 E24.80539
G1 X87.335 Y113.83 E24.84526
G1 X87.335 Y109.17 E25.28563
G1 X87.375 Y108.668 E25.33322
G1 X87.494 Y108.179 E25.38078
G1 X87.688 Y107.714 E25.42839
G1 X87.954 Y107.286 E25.47601
G1 X88.284 Y106.906 E25.52358
G1 X88.67 Y106.583 E25.57114
G10
G0 F4320 X91.038 Y108.466
G0 X91.039 Y109.701
G0 X111.375 Y112.965
;TYPE:WALL-INNER
G11
G1 F1800 X91.375 Y112.963 E27.46114
G1 X91.375 Y110.037 E27.73765
G1 X111.375 Y110.035 E29.62765
G1 X111.375 Y101.375 E30.44602
G1 X131.625 Y101.375 E32.35964
G1 X131.625 Y121.625 E34.27327
G1 X111.375 Y121.625 E36.18689
G1 X111.375 Y112.965 E37.00526
G0 F4320 X111.025 Y113.315
G1 F1800 X91.025 Y113.313 E38.89526
G1 X91.025 Y109.687 E39.23792
G1 X111.025 Y109.685 E41.12792
G1 X111.025 Y101.025 E41.94629
G1 X131.975 Y101.025 E43.92606
G1 X131.975 Y121.975 E45.90584
G1 X111.025 Y121.975 E47.88561
G1 X111.025 Y113.315 E48.70398
G0 F4320 X110.7 Y113.64
;TYPE:WALL-OUTER
G1 F1800 X90.7 Y113.638 E50.59398
G1 X90.7 Y109.362 E50.99806
G1 X110.7 Y109.36 E52.88806
G1 X110.7 Y100.7 E53.70643
G1 X132.3 Y100.7 E55.74763
G1 X132.3 Y122.3 E57.78883
G1 X110.7 Y122.3 E59.83003
G1 X110.7 Y113.64 E60.6484
G0 F4320 X110.5 Y113.64
G0 X110.501 Y113.215
G0 X111.715 Y112.625
;TYPE:SKIN
G1 F1800 X91.715 Y112.623 E62.5384
G1 X91.715 Y110.377 E62.75065
G1 X111.715 Y110.375 E64.64065
G1 X111.715 Y101.715 E65.45902
G1 X131.285 Y101.715 E67.30839
G1 X131.285 Y121.285 E69.15775
G1 X111.715 Y121.285 E71.00712
G1 X111.715 Y112.625 E71.82549
G0 F4320 X92.171 Y112.465
G1 F1800 X91.871 Y112.165 E71.86558
G0 F4320 X91.871 Y111.67
G1 F1800 X92.666 Y112.465 E71.97183
G0 F4320 X93.161 Y112.465
G1 F1800 X91.871 Y111.175 E72.14423
G0 F4320 X91.871 Y110.68
G1 F1800 X93.656 Y112.465 E72.38278
G0 F4320 X94.151 Y112.465
G1 F1800 X92.219 Y110.533 E72.64098
G0 F4320 X92.714 Y110.533
G1 F1800 X94.646 Y112.465 E72.89918
G0 F4320 X95.141 Y112.465
G1 F1800 X93.209 Y110.533 E73.15737
G0 F4320 X93.704 Y110.533
G1 F1800 X95.636 Y112.465 E73.41557
G0 F4320 X96.131 Y112.465
G1 F1800 X94.199 Y110.533 E73.67377
G0 F4320 X94.694 Y110.533
G1 F1800 X96.626 Y112.465 E73.93197
G0 F4320 X97.121 Y112.465
G1 F1800 X95.189 Y110.533 E74.19017
G0 F4320 X95.684 Y110.533
G1 F1800 X97.616 Y112.465 E74.44837
G0 F4320 X98.111 Y112.465
G1 F1800 X96.179 Y110.533 E74.70657
G0 F4320 X96.674 Y110.533
G1 F1800 X98.606 Y112.466 E74.96483
G0 F4320 X99.101 Y112.466
G1 F1800 X97.169 Y110.533 E75.2231
G0 F4320 X97.664 Y110.533
G1 F1800 X99.596 Y112.466 E75.48136
G0 F4320 X100.091 Y112.466
G1 F1800 X98.159 Y110.533 E75.73963
G0 F4320 X98.654 Y110.533
G1 F1800 X100.586 Y112.466 E75.99789
G0 F4320 X101.081 Y112.466
G1 F1800 X99.149 Y110.533 E76.25616
G0 F4320 X99.644 Y110.533
G1 F1800 X101.576 Y112.466 E76.51442
G0 F4320 X102.071 Y112.466
G1 F1800 X100.139 Y110.533 E76.77269
G0 F4320 X100.634 Y110.533
G1 F1800 X102.566 Y112.466 E77.03096
G0 F4320 X103.061 Y112.466
G1 F1800 X101.128 Y110.533 E77.28929
G0 F4320 X101.623 Y110.533
G1 F1800 X103.556 Y112.466 E77.54762
G0 F4320 X104.051 Y112.466
G1 F1800 X102.118 Y110.532 E77.80602
G0 F4320 X102.613 Y110.532
G1 F1800 X104.546 Y112.466 E78.06442
G0 F4320 X105.041 Y112.466
G1 F1800 X103.108 Y110.532 E78.32282
G0 F4320 X103.603 Y110.532
G1 F1800 X105.537 Y112.466 E78.58128
G0 F4320 X106.032 Y112.466
G1 F1800 X104.098 Y110.532 E78.83975
G0 F4320 X104.593 Y110.532
G1 F1800 X106.527 Y112.466 E79.09822
G0 F4320 X107.022 Y112.466
G1 F1800 X105.088 Y110.532 E79.35668
G0 F4320 X105.583 Y110.532
G1 F1800 X107.517 Y112.466 E79.61515
G0 F4320 X108.011 Y112.466
G1 F1800 X106.078 Y110.532 E79.87355
G0 F4320 X106.573 Y110.532
G1 F1800 X108.506 Y112.466 E80.13195
G0 F4320 X109.001 Y112.466
G1 F1800 X107.067 Y110.532 E80.39041
G0 F4320 X107.562 Y110.532
G1 F1800 X109.496 Y112.466 E80.64888
G0 F4320 X109.991 Y112.466
G1 F1800 X108.057 Y110.532 E80.90734
G0 F4320 X108.552 Y110.532
G1 F1800 X110.486 Y112.466 E81.16581
G0 F4320 X110.981 Y112.466
G1 F1800 X109.047 Y110.532 E81.42427
G0 F4320 X109.542 Y110.532
G1 F1800 X111.476 Y112.466 E81.68274
G0 F4320 X111.872 Y112.862
G1 F1800 X120.136 Y121.126 E82.78717
G0 F4320 X119.641 Y121.126
G1 F1800 X111.872 Y113.356 E83.82551
G0 F4320 X111.872 Y113.851
G1 F1800 X119.146 Y121.126 E84.7977
G0 F4320 X118.651 Y121.126
G1 F1800 X111.872 Y114.346 E85.70373
G0 F4320 X111.872 Y114.841
G1 F1800 X118.156 Y121.126 E86.54361
G0 F4320 X117.661 Y121.126
G1 F1800 X111.872 Y115.336 E87.31734
G0 F4320 X111.872 Y115.831
G1 F1800 X117.166 Y121.126 E88.02491
G0 F4320 X116.671 Y121.126
G1 F1800 X111.872 Y116.326 E88.66633
G0 F4320 X111.872 Y116.821
G1 F1800 X116.176 Y121.126 E89.2416
G0 F4320 X115.681 Y121.126
G1 F1800 X111.872 Y117.316 E89.75071
G0 F4320 X111.872 Y117.811
G1 F1800 X115.186 Y121.126 E90.19367
G0 F4320 X114.692 Y121.126
G1 F1800 X111.872 Y118.306 E90.57055
G0 F4320 X111.872 Y118.801
G1 F1800 X114.197 Y121.126 E90.88127
G0 F4320 X113.702 Y121.126
G1 F1800 X111.872 Y119.296 E91.12583
G0 F4320 X111.872 Y119.791
G1 F1800 X113.207 Y121.126 E91.30425
G0 F4320 X112.712 Y121.126
G1 F1800 X111.872 Y120.286 E91.41651
G0 F4320 X111.872 Y120.781
G1 F1800 X112.217 Y121.126 E91.46261
G0 F4320 X120.631 Y121.126
G1 F1800 X110.037 Y110.532 E92.87843
G0 F4320 X110.532 Y110.532
G1 F1800 X121.126 Y121.126 E94.29425
G0 F4320 X121.621 Y121.126
G1 F1800 X111.027 Y110.532 E95.71006
G0 F4320 X111.522 Y110.532
G1 F1800 X122.116 Y121.126 E97.12588
G0 F4320 X122.611 Y121.126
G1 F1800 X111.871 Y110.386 E98.56121
G0 F4320 X111.871 Y109.891
G1 F1800 X123.106 Y121.126 E100.06269
G0 F4320 X123.601 Y121.126
G1 F1800 X111.871 Y109.396 E101.63032
G0 F4320 X111.871 Y108.901
G1 F1800 X124.096 Y121.126 E103.26411
G0 F4320 X124.591 Y121.126
G1 F1800 X111.871 Y108.406 E104.96405
G0 F4320 X111.871 Y107.911
G1 F1800 X125.086 Y121.126 E106.73015
G0 F4320 X125.581 Y121.126
G1 F1800 X111.871 Y107.416 E108.56239
G0 F4320 X111.871 Y106.921
G1 F1800 X126.076 Y121.126 E110.4608
G0 F4320 X126.571 Y121.126
G1 F1800 X111.871 Y106.426 E112.42535
G0 F4320 X111.871 Y105.931
G1 F1800 X127.066 Y121.126 E114.45606
G0 F4320 X127.561 Y121.126
G1 F1800 X111.871 Y105.436 E116.55292
G0 F4320 X111.871 Y104.941
G1 F1800 X128.056 Y121.126 E118.71593
G0 F4320 X128.551 Y121.126
G1 F1800 X111.871 Y104.446 E120.9451
G0 F4320 X111.871 Y103.951
G1 F1800 X129.046 Y121.126 E123.24042
G0 F4320 X129.541 Y121.126
G1 F1800 X111.871 Y103.456 E125.6019
G0 F4320 X111.871 Y102.961
G1 F1800 X130.036 Y121.126 E128.02953
G0 F4320 X130.531 Y121.126
G1 F1800 X111.871 Y102.466 E130.52331
G0 F4320 X111.871 Y101.971
G1 F1800 X131.026 Y121.126 E133.08324
G0 F4320 X131.127 Y120.732
G1 F1800 X112.265 Y101.871 E135.60396
G0 F4320 X112.76 Y101.871
G1 F1800 X131.127 Y120.237 E138.05851
G0 F4320 X131.127 Y119.742
G1 F1800 X113.255 Y101.871 E140.44692
G0 F4320 X113.75 Y101.871
G1 F1800 X131.127 Y119.247 E142.76917
G0 F4320 X131.127 Y118.752
G1 F1800 X114.245 Y101.871 E145.02527
G0 F4320 X114.74 Y101.871
G1 F1800 X131.127 Y118.257 E147.21521
G0 F4320 X131.127 Y117.762
G1 F1800 X115.235 Y101.871 E149.339
G0 F4320 X115.73 Y101.871
G1 F1800 X131.127 Y117.268 E151.3967
G0 F4320 X131.127 Y116.773
G1 F1800 X116.225 Y101.871 E153.38825
G0 F4320 X116.72 Y101.871
G1 F1800 X131.127 Y116.278 E155.31365
G0 F4320 X131.127 Y115.783
G1 F1800 X117.215 Y101.871 E157.1729
G0 F4320 X117.71 Y101.871
G1 F1800 X131.127 Y115.288 E158.96599
G0 F4320 X131.127 Y114.793
G1 F1800 X118.205 Y101.871 E160.69292
G0 F4320 X118.7 Y101.871
G1 F1800 X131.127 Y114.298 E162.35371
G0 F4320 X131.127 Y113.803
G1 F1800 X119.195 Y101.871 E163.94834
G0 F4320 X119.69 Y101.871
G1 F1800 X131.127 Y113.308 E165.47682
G0 F4320 X131.127 Y112.813
G1 F1800 X120.185 Y101.871 E166.93914
G0 F4320 X120.68 Y101.871
G1 F1800 X131.127 Y112.318 E168.33531
G0 F4320 X131.127 Y111.823
G1 F1800 X121.175 Y101.871 E169.66533
G0 F4320 X121.67 Y101.871
G1 F1800 X131.127 Y111.328 E170.92919
G0 F4320 X131.127 Y110.833
G1 F1800 X122.165 Y101.871 E172.1269
G0 F4320 X122.66 Y101.871
G1 F1800 X131.127 Y110.338 E173.25846
G0 F4320 X131.127 Y109.843
G1 F1800 X123.155 Y101.871 E174.32386
G0 F4320 X123.65 Y101.871
G1 F1800 X131.127 Y109.348 E175.32311
G0 F4320 X131.127 Y108.853
G1 F1800 X124.145 Y101.871 E176.25621
G0 F4320 X124.64 Y101.871
G1 F1800 X131.127 Y108.358 E177.12315
G0 F4320 X131.127 Y107.863
G1 F1800 X125.135 Y101.871 E177.92394
G0 F4320 X125.63 Y101.871
G1 F1800 X131.127 Y107.368 E178.65858
G0 F4320 X131.127 Y106.873
G1 F1800 X126.125 Y101.871 E179.32706
G0 F4320 X126.62 Y101.871
G1 F1800 X131.127 Y106.378 E179.92939
G0 F4320 X131.127 Y105.883
G1 F1800 X127.115 Y101.871 E180.46557
G0 F4320 X127.61 Y101.871
G1 F1800 X131.127 Y105.388 E180.93559
G0 F4320 X131.127 Y104.893
G1 F1800 X128.105 Y101.871 E181.33946
G0 F4320 X128.6 Y101.871
G1 F1800 X131.127 Y104.398 E181.67718
G0 F4320 X131.127 Y103.903
G1 F1800 X129.095 Y101.871 E181.94874
G0 F4320 X129.59 Y101.871
G1 F1800 X131.127 Y103.408 E182.15415
G0 F4320 X131.127 Y102.913
G1 F1800 X130.085 Y101.871 E182.2934
G0 F4320 X130.579 Y101.871
G1 F1800 X131.127 Y102.418 E182.36657
G0 F4320 X131.127 Y101.923
G1 F1800 X131.074 Y101.871 E182.37359
G0 F4320 X111.375 Y113.032
;TIME_ELAPSED:72.221283
;LAYER:1
M106 S255
G0 F5760 X111.375 Y113.032 Z0.37
;TYPE:WALL-INNER
G1 F2100 X91.375 Y113.029 E183.07359
G1 X91.375 Y110.147 E183.17446
G1 X91.375 Y109.972 E183.18059
G1 X91.55 Y109.972 E183.18455
G1 X103.833 Y109.976 E183.61445
G1 X111.375 Y109.968 E183.87842
G1 X111.375 Y101.375 E184.17918
G1 X131.625 Y101.375 E184.88793
G1 X131.625 Y121.625 E185.59668
G1 X111.375 Y121.625 E186.30543
G1 X111.375 Y113.032 E186.60618
G0 F5760 X111.025 Y113.382
G1 F2100 X91.025 Y113.379 E187.30618
G1 X91.025 Y109.797 E187.43155
G1 X91.025 Y109.622 E187.43768
G1 X91.2 Y109.622 E187.44164
G1 X103.833 Y109.626 E187.8838
G1 X111.025 Y109.618 E188.13552
G1 X111.025 Y101.025 E188.43627
G1 X131.975 Y101.025 E189.16952
G1 X131.975 Y121.975 E189.90277
G1 X111.025 Y121.975 E190.63602
G1 X111.025 Y113.382 E190.93678
G0 F5760 X110.7 Y113.707
;TYPE:WALL-OUTER
G1 F1800 X90.7 Y113.704 E191.63678
G1 X90.7 Y109.472 E191.7849
G1 X90.7 Y109.297 E191.79102
G1 X90.875 Y109.297 E191.79499
G1 X103.833 Y109.301 E192.24852
G1 X110.7 Y109.293 E192.48886
G1 X110.7 Y100.7 E192.78962
G1 X132.3 Y100.7 E193.54562
G1 X132.3 Y122.3 E194.30162
G1 X110.7 Y122.3 E195.05762
G1 X110.7 Y113.707 E195.35837
G0 F5760 X110.5 Y113.707
G0 X110.501 Y113.282
G0 X111.715 Y112.692
;TYPE:SKIN
G1 F1500 X91.715 Y112.689 E196.05837
G1 X91.715 Y110.312 E196.14157
G1 X103.833 Y110.316 E196.5657
G1 X111.715 Y110.308 E196.84157
G1 X111.715 Y101.715 E197.14232
G1 X131.285 Y101.715 E197.82727
G1 X131.285 Y121.285 E198.51222
G1 X111.715 Y121.285 E199.19717
G1 X111.715 Y112.692 E199.49793
G0 F5760 X91.872 Y110.572
G1 F1500 X91.976 Y110.468 E199.50307
G0 F5760 X92.471 Y110.468
G1 F1500 X91.872 Y111.067 E199.53272
G0 F5760 X91.872 Y111.562
G1 F1500 X92.966 Y110.468 E199.58687
G0 F5760 X93.461 Y110.468
G1 F1500 X91.872 Y112.057 E199.66553
G0 F5760 X91.892 Y112.531
G1 F1500 X93.955 Y110.469 E199.76761
G0 F5760 X94.45 Y110.469
G1 F1500 X92.387 Y112.531 E199.8697
G0 F5760 X92.882 Y112.531
G1 F1500 X94.945 Y110.469 E199.97179
G0 F5760 X95.44 Y110.469
G1 F1500 X93.377 Y112.531 E200.07388
G0 F5760 X93.872 Y112.531
G1 F1500 X95.934 Y110.469 E200.17594
G0 F5760 X96.429 Y110.469
G1 F1500 X94.367 Y112.531 E200.27801
G0 F5760 X94.862 Y112.531
G1 F1500 X96.924 Y110.469 E200.38007
G0 F5760 X97.419 Y110.469
G1 F1500 X95.357 Y112.531 E200.48214
G0 F5760 X95.852 Y112.531
G1 F1500 X97.913 Y110.47 E200.58415
G0 F5760 X98.408 Y110.47
G1 F1500 X96.347 Y112.531 E200.68616
G0 F5760 X96.842 Y112.531
G1 F1500 X98.903 Y110.47 E200.78818
G0 F5760 X99.398 Y110.47
G1 F1500 X97.336 Y112.532 E200.89024
G0 F5760 X97.831 Y112.532
G1 F1500 X99.892 Y110.471 E200.99226
G0 F5760 X100.387 Y110.471
G1 F1500 X98.326 Y112.532 E201.09427
G0 F5760 X98.821 Y112.532
G1 F1500 X100.882 Y110.471 E201.19628
G0 F5760 X101.377 Y110.471
G1 F1500 X99.316 Y112.532 E201.2983
G0 F5760 X99.811 Y112.532
G1 F1500 X101.872 Y110.471 E201.40031
G0 F5760 X102.367 Y110.471
G1 F1500 X100.306 Y112.532 E201.50233
G0 F5760 X100.801 Y112.532
G1 F1500 X102.862 Y110.471 E201.60434
G0 F5760 X103.357 Y110.471
G1 F1500 X101.296 Y112.532 E201.70636
G0 F5760 X101.791 Y112.532
G1 F1500 X103.852 Y110.471 E201.80837
G0 F5760 X104.347 Y110.471
G1 F1500 X102.285 Y112.533 E201.91043
G0 F5760 X102.78 Y112.533
G1 F1500 X104.842 Y110.471 E202.0125
G0 F5760 X105.337 Y110.471
G1 F1500 X103.275 Y112.533 E202.11456
G0 F5760 X103.77 Y112.533
G1 F1500 X105.833 Y110.47 E202.21668
G0 F5760 X106.329 Y110.469
G1 F1500 X104.265 Y112.533 E202.31884
G0 F5760 X104.76 Y112.533
G1 F1500 X106.824 Y110.469 E202.421
G0 F5760 X107.319 Y110.469
G1 F1500 X105.255 Y112.533 E202.52316
G0 F5760 X105.75 Y112.533
G1 F1500 X107.814 Y110.469 E202.62533
G0 F5760 X108.31 Y110.468
G1 F1500 X106.245 Y112.533 E202.72754
G0 F5760 X106.74 Y112.533
